remix/Finance/gift-2-fill.svg

<svg viewBox="0 0 24 24" fill="currentColor" xmlns="http://www.w3.org/2000/svg"><path d="M20.0049 13.0028V20.0028C20.0049 20.5551 19.5572 21.0028 19.0049 21.0028H5.00488C4.4526 21.0028 4.00488 20.5551 4.00488 20.0028V13.0028H20.0049ZM14.5049 2.00281C16.4379 2.00281 18.0049 3.56981 18.0049 5.50281C18.0049 6.04001 17.8839 6.54895 17.6676 7.00385L21.0049 7.00281C21.5572 7.00281 22.0049 7.45052 22.0049 8.00281V11.0028C22.0049 11.5551 21.5572 12.0028 21.0049 12.0028H3.00488C2.4526 12.0028 2.00488 11.5551 2.00488 11.0028V8.00281C2.00488 7.45052 2.4526 7.00281 3.00488 7.00281L6.34219 7.00385C6.12591 6.54895 6.00488 6.04001 6.00488 5.50281C6.00488 3.56981 7.57189 2.00281 9.50488 2.00281C10.4849 2.00281 11.3708 2.40557 12.0061 3.05459C12.639 2.40557 13.5249 2.00281 14.5049 2.00281ZM9.50488 4.00281C8.67646 4.00281 8.00488 4.67438 8.00488 5.50281C8.00488 6.2825 8.59977 6.92326 9.36042 6.99594L9.50488 7.00281H11.0049V5.50281C11.0049 4.72311 10.41 4.08236 9.64934 4.00967L9.50488 4.00281ZM14.5049 4.00281L14.3604 4.00967C13.6473 4.07782 13.0799 4.64524 13.0117 5.35835L13.0049 5.50281V7.00281H14.5049L14.6493 6.99594C15.41 6.92326 16.0049 6.2825 16.0049 5.50281C16.0049 4.72311 15.41 4.08236 14.6493 4.00967L14.5049 4.00281Z"/></svg>

<svg viewBox="0 0 24 24" xmlns="http://www.w3.org/2000/svg"><path fill="none" d="M0 0h24v24H0Z"/><path d="M20 13v7 0c0 .55-.45 1-1 1H5v0c-.56 0-1-.45-1-1v-7h16ZM14.5 2v0c1.93-.01 3.5 1.56 3.5 3.49 0 .51-.12 1.03-.34 1.5l3.33-.01v0c.55 0 1 .44 1 1v3 0c0 .55-.45 1-1 1h-18v0c-.56 0-1-.45-1-1v-3 0c0-.56.44-1 1-1l3.33 0 0 0c-.84-1.75-.09-3.84 1.65-4.67 1.35-.65 2.96-.36 4 .71v0c.65-.68 1.55-1.06 2.49-1.06Zm-5 2v0C8.67 4 8 4.67 8 5.5c0 .77.58 1.41 1.35 1.49l.14 0h1.5v-1.5 0c-.01-.78-.59-1.42-1.36-1.5l-.15-.01Zm5 0l-.15 0v0c-.72.06-1.29.63-1.35 1.34l-.01.14v1.5h1.5l.14-.01v0c.82-.08 1.42-.82 1.34-1.64 -.07-.72-.64-1.28-1.35-1.35l-.15-.01Z"/></svg>
